images/calendar.svg

<svg xmlns="http://www.w3.org/2000/svg" viewBox="0 0 13 13"><path d="M0 0v4h13V0H0zm12 3H1V1h11v2zM0 7h3V6H0v1zm5 0h3V6H5v1zm5 0h3V6h-3v1zM0 10h3V9H0v1zm5 0h3V9H5v1zm5 0h3V9h-3v1zM0 13h3v-1H0v1zm5 0h3v-1H5v1zm5 0h3v-1h-3v1z"/></svg>

<?xml version="1.0" encoding="utf-8"?>
<!-- Generator: Adobe Illustrator 21.1.0, SVG Export Plug-In . SVG Version: 6.00 Build 0)  -->
<svg version="1.1" id="Layer_1" xmlns="http://www.w3.org/2000/svg" xmlns:xlink="http://www.w3.org/1999/xlink" x="0px" y="0px"
	 viewBox="0 0 13 13" style="enable-background:new 0 0 13 13;" xml:space="preserve">
<path d="M0,0v4h13V0H0z M12,3H1V1h11V3z M0,7h3V6H0V7z M5,7h3V6H5V7z M10,7h3V6h-3V7z M0,10h3V9H0V10z M5,10h3V9H5V10z M10,10h3V9
	h-3V10z M0,13h3v-1H0V13z M5,13h3v-1H5V13z M10,13h3v-1h-3V13z"/>
</svg>
